svg/plus-02.svg

<svg width="24" height="24" viewBox="0 0 24 24" xmlns="http://www.w3.org/2000/svg"><path d="M10.5 10.5H4v3h6.5V20h3v-6.5H20v-3h-6.5V4h-3v6.5z" fill-rule="evenodd"/></svg>

<svg width="24" height="24" viewBox="0 0 24 24" xmlns="http://www.w3.org/2000/svg"><title>750F1011-43F3-4FF3-A13E-C26A298D5B20</title><path d="M10.5,10.5 L4,10.5 L4,13.5 L10.5,13.5 L10.5,20 L13.5,20 L13.5,13.5 L20,13.5 L20,10.5 L13.5,10.5 L13.5,4 L10.5,4 L10.5,10.5 Z" fill="#4C566C" fill-rule="evenodd"/></svg>
